X:1
T:Title
%%score { ( 1 3 ) | ( 2 4 ) }
L:1/8
M:4/4
K:Ab
V:1 treble nm="Grand Piano"
V:3 treble 
V:2 bass 
V:4 bass 
V:1
 z4 z2[Q:1/4=100] A>B | c6 z2 | [FB]4 F2 B>A | G6 z2 |[M:3/4] [A,CE]6 |[M:1/4] A>B |[M:4/4] c6 z2 | %7
 e2 z2 z4 | A2 E2 c2 B2 |[M:3/4] [CA]6 |[M:1/4] [CA]>[CA] |[M:4/4] B>B B>c d2 e>d | %12
 [Ec]>[Ec] [Ec]>[DB] [CA]2 c>d | e>e e>e e>A B>c | B6 c>B | %15
 [CA]>[CA] [CA]>[CA] [DB]>[FA] [EG]>[DF] | [DF]>[CE] [A,C]>[CE] [EA]>B c>d | z2 .d2 z4 | %18
[M:3/4] [CA]6 |] %19
V:2
 z4 z2 C>D | E6 z2 | [D,A,]4 [D,A,D]2[K:treble] D>F | E6[K:bass] z2 |[M:3/4] A,,6 | %5
[M:1/4][K:treble] C>D |[M:4/4] E4- E>[A,E] [G,B,E]>[A,_G] | z2 d2 D,2 D,>D, | %8
 [E,CE]2 [E,C]2 [E,A,E]2 [E,G,D]2 |[M:3/4] [A,,E,]6 |[M:1/4] [A,,E,]>[A,,E,] | %11
[M:4/4] [E,G,E]>[E,G,E] [E,G,E]>[E,A,E] [E,B,E]2 [E,CE]>[E,B,E] | %12
 [A,,A,]>[A,,A,] [A,,A,]>[A,,E,] [A,,E,]2 [A,E]>[A,B,E] | %13
 [A,CE]>[A,CE] [A,CE]>[A,CE] [A,CE]>[A,CE] [G,B,E]>[A,E] | [E,G,E]6 [E,E]>[E,D] | %15
 [A,,E,]>[A,,E,] [A,,E,]>[A,,E,] [D,F,]>[D,A,] [D,A,]>[D,A,] | %16
 [A,,A,]>[A,,A,] [A,,E,]>[A,,A,] [C,A,]>[E,G,E] [A,E]>[A,B,E] | [A,CE]2 B,D [E,CE]2 [E,B,D]2 | %18
[M:3/4] [A,,A,]6 |] %19
V:3
 x8 | z2 A,>A, A,>[Ec] [Fd]>[Ec] | x8 | z2 B,>B, B,>[A,DF] [G,DE]>[G,DF] |[M:3/4] x6 |[M:1/4] x2 | %6
[M:4/4] z2 A,>A, A,>c B>c | F4 [A,DF]2 [EFc]>[DFB] | x8 |[M:3/4] x6 |[M:1/4] x2 |[M:4/4] x8 | x8 | %13
 x8 | x8 | x8 | x8 | e2 F-[FB] A2 G2 |[M:3/4] x6 |] %19
V:4
 x8 | z2 A,,>A,, A,,>[A,,A,] [A,,A,]>[A,,A,] | x6[K:treble] x2 | z2[K:bass] E,>E, E,>E, E,>E, | %4
[M:3/4] x6 |[M:1/4][K:treble] x2 |[M:4/4] x8 | [D,A,]4 z4 | x8 |[M:3/4] x6 |[M:1/4] x2 | %11
[M:4/4] x8 | x8 | x8 | x8 | x8 | x8 | z2 D,2 z4 |[M:3/4] x6 |] %19

